neru-light-classic/32x32/apps/freecad.svg

<?xml version="1.0" encoding="UTF-8" standalone="no"?>
<svg
   xmlns:dc="http://purl.org/dc/elements/1.1/"
   xmlns:cc="http://creativecommons.org/ns#"
   xmlns:rdf="http://www.w3.org/1999/02/22-rdf-syntax-ns#"
   xmlns:svg="http://www.w3.org/2000/svg"
   xmlns="http://www.w3.org/2000/svg"
   xmlns:sodipodi="http://sodipodi.sourceforge.net/DTD/sodipodi-0.dtd"
   xmlns:inkscape="http://www.inkscape.org/namespaces/inkscape"
   height="32"
   width="32"
   version="1"
   id="svg18"
   sodipodi:docname="freecad.svg"
   inkscape:version="0.92.1 r">
  <metadata
     id="metadata24">
    <rdf:RDF>
      <cc:Work
         rdf:about="">
        <dc:format>image/svg+xml</dc:format>
        <dc:type
           rdf:resource="http://purl.org/dc/dcmitype/StillImage" />
      </cc:Work>
    </rdf:RDF>
  </metadata>
  <defs
     id="defs22" />
  <sodipodi:namedview
     pagecolor="#ffffff"
     bordercolor="#666666"
     borderopacity="1"
     objecttolerance="10"
     gridtolerance="10"
     guidetolerance="10"
     inkscape:pageopacity="0"
     inkscape:pageshadow="2"
     inkscape:window-width="640"
     inkscape:window-height="480"
     id="namedview20"
     showgrid="false"
     inkscape:zoom="8.8125"
     inkscape:cx="23.725983"
     inkscape:cy="9.4080321"
     inkscape:current-layer="svg18" />
  <rect
     style="opacity:1;fill:#4f4f4f;fill-opacity:1;fill-rule:evenodd;stroke:none;stroke-width:1.03534329;stroke-linecap:round;stroke-linejoin:bevel;stroke-miterlimit:4;stroke-dasharray:none;stroke-dashoffset:0;stroke-opacity:1"
     id="rect4497-3"
     width="28.203388"
     height="28.203388"
     x="1.8983059"
     y="1.8983059"
     ry="5.575182" />
  <path
     d="M 7.5045123,7.7197896 H 17.815415 v 3.9885254 h -7.732833 v 3.436968 h 4.296209 v 2.577725 h -4.295865 v 6.014693 H 7.5051997 Z"
     id="path6"
     inkscape:connector-curvature="0"
     style="fill:#ff2106;fill-opacity:1;stroke-width:1"
     sodipodi:nodetypes="ccccccccccc" />
  <path
     style="fill:#ffffff;stroke-width:1.60000002;enable-background:new"
     d="M 20.822266 11.90625 L 20.822266 11.908203 L 20.060547 13.519531 A 5.3023948 5.3023948 0 0 0 18.294922 13.814453 L 17.048828 12.535156 L 14.443359 14.679688 L 15.458984 16.148438 A 5.3023948 5.3023948 0 0 0 15.070312 16.958984 A 5.3023948 5.3023948 0 0 0 14.826172 17.826172 L 13.101562 18.263672 L 13.65625 21.591797 L 15.431641 21.447266 A 5.3023948 5.3023948 0 0 0 16.572266 22.826172 L 16.087891 24.546875 L 19.248047 25.730469 L 20.009766 24.117188 A 5.3023948 5.3023948 0 0 0 21.775391 23.822266 L 23.021484 25.101562 L 25.626953 22.957031 L 24.611328 21.488281 A 5.3023948 5.3023948 0 0 0 25 20.679688 A 5.3023948 5.3023948 0 0 0 25.244141 19.810547 L 26.96875 19.373047 L 26.414062 16.044922 L 24.638672 16.191406 A 5.3023948 5.3023948 0 0 0 23.496094 14.810547 L 23.982422 13.089844 L 20.822266 11.90625 z M 20.015625 16.03125 A 2.8076754 2.8076754 0 0 1 22.824219 18.839844 A 2.8076754 2.8076754 0 0 1 20.015625 21.646484 A 2.8076754 2.8076754 0 0 1 17.208984 18.839844 A 2.8076754 2.8076754 0 0 1 20.015625 16.03125 z "
     id="path14" />
</svg>

<svg xmlns="http://www.w3.org/2000/svg" height="32" width="32" version="1"><rect width="28.203" height="28.203" x="1.898" y="1.898" ry="5.575" fill="#4f4f4f" fill-rule="evenodd"/><path d="M7.505 7.72h10.31v3.988h-7.732v3.437h4.296v2.578h-4.296v6.015H7.505z" fill="#ff2106"/><path d="M20.822 11.906v.002l-.761 1.612a5.302 5.302 0 0 0-1.766.294l-1.246-1.279-2.606 2.145 1.016 1.468a5.302 5.302 0 0 0-.389.811 5.302 5.302 0 0 0-.244.867l-1.724.438.554 3.328 1.776-.145a5.302 5.302 0 0 0 1.14 1.38l-.484 1.72 3.16 1.183.762-1.613a5.302 5.302 0 0 0 1.765-.295l1.246 1.28 2.606-2.145-1.016-1.469A5.302 5.302 0 0 0 25 20.68a5.302 5.302 0 0 0 .244-.87l1.725-.437-.555-3.328-1.775.146a5.302 5.302 0 0 0-1.143-1.38l.486-1.721-3.16-1.184zm-.806 4.125a2.808 2.808 0 0 1 2.808 2.809 2.808 2.808 0 0 1-2.808 2.806 2.808 2.808 0 0 1-2.807-2.806 2.808 2.808 0 0 1 2.807-2.809z" fill="#fff"/></svg>
